X:1
T:Standin In The Need of Prayer
T:Oh, Wasn't that a wide river?
T:Copyright 1881 by The Riverside Press
T:Rodeheaver's Plantation Melodies
T:Rodeheaver's Plantation Melodies
Z:Rodeheaver's Plantation Melodies
%%score [ 1 2 3 4 ]
L:1/8
Q:1/4=70
M:2/4
K:F
V:1 treble nm="Soprano" snm="S."
V:2 treble nm="Alto" snm="A."
V:3 bass nm="Tenor" snm="T."
V:4 bass nm="Bass" snm="B."
V:1
 cd/c/ c/A/ | c4 | d c3 | d c2 c | cA A<c | (c f3) | d c2 B | AA G/GG/ |1 F :|2 F3 || F/F/ | %11
w: ||||||||||Oh, the|
 A/A/A F/F/ | AA F2 | GG A/cc/ | c3 F/-F/ | A/A/A/A/ FF/-F/ | AA F2 | GG A/GF/ | F!D.C.! |] %19
w: ri- ver of Jor- dan|is so wide.||* I- *|don't know how to get on the|o- ther side.|||
V:2
 AB/A/ A/F/ | A4 | B A3 | B A2 A | AF F<A | A4 | B A2 G | FF E/EE/ |1 D :|2 F3 || F/F/ | %11
w: Oh, wasn't- * that a|wide|ri- ver,|ri- ver of|Jor- dan Lord? ,|wide|ri- ver! There's|one more ri- ver to|cross.|cross.||
 A/A/A F/F/ | AA F2 | EE F/AA/ | A3 F/-F/ | A/A/A/A/ FF/-F/ | AA F2 | EE E/EF/ | F |] %19
w: ||One more ri- ver to|cross. * *|||One more ri- ver to|cross.|
V:3
 FF/F/ F/F/ | F4 | F F3 | F F2 F | FC C2 | (C F3) | D C2 D | CC B,/B,B,/ |1 A, :|2 A,3 || z | z3 | %12
 z4 | CC C/CC/ | C3 z | z4 | z4 | CC C/B,A,/ | A, |] %19
V:4
 F,F,/F,/ F,/F,/ | F,4 | F, F,3 | F, F,2 F, | F,F, F,2 | F,4 | F, F,2 B,, | C,C, C,/C,C,/ |1 F, :|2 %9
 F,3 || z | z3 | z4 | C,C, C,/C,C,/ | F,3 z | z4 | %16
"_2. I have some friends before me gone. One more river to cross.\n    By the grace of God I'll follow on. . One more river to cross.\n\n3. Shout, shout, Satan's about. One more river to cross.\n    Shut your door and keep him out. One more river to cross.\n\n4. Old Satan is a snake in the grass. One more river to cross.\n    If you don't mind he'll get you at last. One more river to cross." z4 | %17
 C,C, C,/C,C,/ | F, |] %19

